X: 10908
T: Drowsy Maggie
R: reel
M: 4/4
K: Edorian
|:E2~E2 ~E2~E2|~E2dB AFED|~E2BE d~E3|BABd BAFD|
E2 B~E2 ~E2|~E2dB AFED|E2~E2 d~E3|~B3d BAFD:|
|:d2fd c2ec|deg2 eaa2|dffd cded|BABd BAFA|
d2fd c2ec|deg2 eaa2|afge fdeA|~B3d BAFA:|

